polaris-icons/icons/new-icons/MarkPaidMinor.svg

<svg width="20" height="20" viewBox="0 0 20 20" fill="none" xmlns="http://www.w3.org/2000/svg">
<path d="M13.2803 7.78033C13.5732 7.48744 13.5732 7.01256 13.2803 6.71967C12.9874 6.42678 12.5126 6.42678 12.2197 6.71967L9.25 9.68934L8.03033 8.46967C7.73744 8.17678 7.26256 8.17678 6.96967 8.46967C6.67678 8.76256 6.67678 9.23744 6.96967 9.53033L8.71967 11.2803C9.01256 11.5732 9.48744 11.5732 9.78033 11.2803L13.2803 7.78033Z" fill="#4A4A4A"/>
<path fill-rule="evenodd" clip-rule="evenodd" d="M4 16C4 16.621 4.38275 17.1779 4.9626 17.4004C5.54245 17.6229 6.19945 17.4651 6.61493 17.0034L7.74999 15.7423L8.88506 17.0034C9.16952 17.3195 9.57477 17.5 10 17.5C10.4252 17.5 10.8305 17.3195 11.1149 17.0034L12.25 15.7423L13.3851 17.0034C13.8005 17.4651 14.4576 17.6229 15.0374 17.4004C15.6172 17.1779 16 16.621 16 16V5C16 3.61929 14.8807 2.5 13.5 2.5H6.5C5.11929 2.5 4 3.61929 4 5V16ZM6.5 4C5.94772 4 5.5 4.44772 5.5 5V16L7.00671 14.3259C7.40395 13.8845 8.09605 13.8845 8.49329 14.3259L10 16L11.5067 14.3259C11.904 13.8845 12.5961 13.8845 12.9933 14.3259L14.5 16V5C14.5 4.44772 14.0523 4 13.5 4H6.5Z" fill="#4A4A4A"/>
</svg>

<svg viewBox="0 0 20 20" xmlns="http://www.w3.org/2000/svg"><path d="M13.28 7.78a.75.75 0 0 0-1.06-1.06l-2.97 2.97-1.22-1.22a.75.75 0 0 0-1.06 1.06l1.75 1.75a.75.75 0 0 0 1.06 0l3.5-3.5Z" fill="#5C5F62"/><path fill-rule="evenodd" d="M4 16a1.5 1.5 0 0 0 2.615 1.003l1.135-1.26 1.135 1.26a1.5 1.5 0 0 0 2.23 0l1.135-1.26 1.135 1.26a1.5 1.5 0 0 0 2.615-1.003v-11a2.5 2.5 0 0 0-2.5-2.5h-7a2.5 2.5 0 0 0-2.5 2.5v11Zm2.5-12a1 1 0 0 0-1 1v11l1.507-1.674a1 1 0 0 1 1.486 0l1.507 1.674 1.507-1.674a1 1 0 0 1 1.486 0l1.507 1.674v-11a1 1 0 0 0-1-1h-7Z" fill="#5C5F62"/></svg>
